X: 3
T: The Beauty Spot
R: reel
M: 4/4
L: 1/8
K: Dmix
B|A2 GB AddB|cBcG EFGB|A2 GB AddB|cBcG EDDB|A2 GB AddB|cBcG EFGB|AGAd B3 d|cBcG EDDB||eddd edcd|edcd eaag|edcd eddc|ABcd eddg|eddd edcd|edcd eaag|fgdB c2 AB|ABcd edd||


Tune 1270	Setting 14583

